X:28
T:Gathering Peascods
M:C|
L:1/4
Q:1/4=120
B:The Round Band Book of Playford
P:(AABBCC)3
K:Cmaj clef=treble
P:A
c [||: "C"g2gg | "C"e>fgg | "F"agfe | "G"d3e | "C"dc "G7"cB | "C"c3 c :|
P:B
[||: "G"BGBc | "G"d2ed | "C"c/2d/2e "D7"dc | \
"C"B3B | "Am"AG "D7"A>G |1 "C"G3 c :|2 "C"G3 g |]
P:C
[||: "C"ecc d/2e/2 | "F"f3f | "C"ecc d/2e/2 | "F"f3f | \
"C"ecc d/2e/2 | "F"f>ga g/2f/2 | "C"e f/2e/2 "G7"d>c \
|1 "C"c3 g :|2 "C"c3 c |]

